icons/stairs-up-two-color.svg

<?xml version="1.0" encoding="UTF-8"?><svg xmlns="http://www.w3.org/2000/svg" viewBox="0 0 50 50"><g id="uuid-8cbd0b5b-7775-471e-97e6-d028970dccfa"><g><path d="M38.5,20.72c0,.28-.22,.5-.5,.5h-11.13v6.22c0,.28-.22,.5-.5,.5H15.25v6.22c0,.28-.22,.5-.5,.5H3.62v10.64H49.13V14.58h-10.63v6.14Z" fill="#ffcd00"/><g><path d="M47.88,11.83h-11.63c-.28,0-.5,.22-.5,.5v6.14h-11.13c-.28,0-.5,.22-.5,.5v6.22H13c-.28,0-.5,.22-.5,.5v6.22H1.37c-.28,0-.5,.22-.5,.5v11.64c0,.28,.22,.5,.5,.5H47.88c.28,0,.5-.22,.5-.5V12.33c0-.28-.22-.5-.5-.5Zm-.5,31.71H1.87v-10.64H13c.28,0,.5-.22,.5-.5v-6.22h11.13c.28,0,.5-.22,.5-.5v-6.22h11.13c.28,0,.5-.22,.5-.5v-6.14h10.63v30.71Z"/><path d="M28.31,7.39c-.06-.11-.16-.18-.27-.22-.03-.01-.05-.03-.08-.04l-7.89-2.4s-.1-.02-.15-.02c-.21,0-.41,.14-.48,.35-.08,.26,.07,.54,.33,.62l6.79,2.07L7.34,18.01c-.24,.13-.34,.43-.21,.68,.13,.25,.44,.34,.68,.21L27.12,8.59l-2.09,6.86c-.08,.26,.07,.54,.33,.62,.27,.08,.54-.07,.62-.33l2.4-7.89c.05-.15,.01-.3-.07-.42,0-.01,0-.03-.01-.04Z"/></g></g></g><g id="uuid-4a355827-b5a6-4bc4-bb75-338f2d66f03a"><text transform="translate(-.32 55.05)" font-family="Roboto-Regular, Roboto" font-size="6"><tspan x="0" y="0">stairs-up</tspan></text></g></svg>

<svg xmlns="http://www.w3.org/2000/svg" viewBox="0 0 50 50"><g id="a0e7ac42-770f-4a7f-937f-1ba837a1008c" data-name="ICONS"><path d="M38.5,20.72a.5.5,0,0,1-.5.5H26.87v6.21a.5.5,0,0,1-.5.5H15.25v6.22a.5.5,0,0,1-.5.5H3.62V45.29H49.13V14.58H38.5Z" fill="#fdd600"/><path d="M47.88,11.83H36.25a.5.5,0,0,0-.5.5v6.14H24.62a.5.5,0,0,0-.5.5v6.21H13a.5.5,0,0,0-.5.5V31.9H1.37a.5.5,0,0,0-.5.5V44a.5.5,0,0,0,.5.5H47.88a.5.5,0,0,0,.5-.5V12.33A.5.5,0,0,0,47.88,11.83Zm-.5,31.71H1.87V32.9H13a.5.5,0,0,0,.5-.5V26.18H24.62a.5.5,0,0,0,.5-.5V19.47H36.25a.5.5,0,0,0,.5-.5V12.83H47.38Z" fill="#231f20"/><path d="M28.31,7.39A.51.51,0,0,0,28,7.17l-.07,0-7.89-2.4-.15,0a.51.51,0,0,0-.48.35.5.5,0,0,0,.34.63l6.78,2.06L7.34,18a.5.5,0,1,0,.47.88L27.12,8.59,25,15.45a.51.51,0,0,0,.33.63.5.5,0,0,0,.63-.34l2.4-7.89a.51.51,0,0,0-.07-.42A.06.06,0,0,1,28.31,7.39Z" fill="#231f20"/></g><g id="ac3bc58f-2639-48c1-87da-4624d995119d" data-name="LABELS"><text transform="translate(-0.32 55.05)" font-size="6" fill="#231f20" font-family="Roboto-Regular, Roboto">stairs-up</text></g></svg>
